X: 210
T:Ricker's Hornpipe. JaW.209
M:C
Q:180
S:James Winder Ms, Lancashire, 1835-41
R:Hornpipe
O:England
A:Wyresdale,Lancashire
N:The C Naturals sit a bit oddly in the B strain, but.....CGP
H:1/8
Z:vmp.Chris Partington, Aug 2004
K:D
fg|afaf d2fd|ecec A2GF|GABc defg|ecAc e2fg|!
afaf d2fd|ecec A2GF|Ggbg fdec|d2d2 d2:|!
|:de|fde=c B2ga|b2e2e2=cd|e=cdB A2fg|a2d2 d3A|!
BcdB AFAF|BcdB AFAF|Ggbg fdec|d2d2 d2:|]
